X: 2
T: Flatworld
R: waltz
M: 3/4
L: 1/8
K: Amin
ede|:"Am"ceBeAc|"F"F2ABcA|"Dm"f2fedc|"G"B3ede|!"Am"ceBeAc|"F"F2fedc|"G"B2BdcB|1 "Am"A3ede:|2 "Am"A6|!|:"Am"ABcAag|"F"f2fedc|"G"BcdBgf|"C"e2edcB|"F"ABcAfe|!"Dm"d2dcBA|1 "Bm"B2Bd^cd|"E7"B3BcB:|2 "E7"B2BdcB|"Am"A3||


Tune 7859	Setting 7859

